X:1
T:Title
%%score { ( 1 3 5 ) | ( 2 4 ) }
L:1/8
Q:1/4=100
M:6/8
K:Eb
V:1 treble nm="Grand Piano"
V:3 treble 
V:5 treble 
V:2 bass 
V:4 bass 
V:1
 BcB BAG | G2 [DF] .[DF]3 | [DA][DB][DA] [DA][DG][DF] | G2 [FA] .[GB]3 | BcB B[FA]G | A2 B .c3 | %6
w: W.~C.~Brown * * * * *||||||
 BAG [EG]2 F | E6 | [DF][EG][FA] [FA][EG][DF] | [EG]2 [FA] .[GB]3 | BAG GFE | G2 [DF] .[DF]3 | %12
w: ||||||
 BcB B[FA]G | A2 B .c3 | BAG [EG]2 [B,F] | [B,E]6 | .[GB]6 | [DF]6 | .[FA]6 | [EG]6 | .[EG]6 | %21
w: |||||||||
 [Ac]-[EA-c-][EA-c-] [EAc]3 | [GB]-[EG-B-][EG-B-] [EGB]G[G,B,E] | [DF]3 z3 | .[GB]6 | [DF]6 | %26
w: |||||
 .[FA]6 | [EG]6 | .[EG]6 | [Ac]-[EA-c-][EA-c-] [EAc]2 [EB] | [EB][CFA][EG] [EG][EG]F | E6 |] %32
w: ||||||
V:2
 [E,G,E][E,A,E][E,G,E] [E,G,E][F,B,][E,G,E] | [B,E]2 [B,,B,] .[B,,B,]3 | %2
 [B,,B,][B,,B,][B,,B,] [B,,B,][B,,B,][B,,B,] | [E,E]2 [E,E] .[E,E]3 | %4
 [E,G,E][E,A,E][E,G,E] [E,G,E][B,,B,][E,B,E] | [F,B,D]2 [G,_DE] .[A,CE]3 | %6
 [G,E][A,CE][B,E] [B,,B,]2 [B,,B,] | [E,G,B,]6 | [B,,B,][B,,B,][B,,B,] [B,,B,][B,,B,][B,,B,] | %9
 [E,B,]2 [E,B,] .[E,E]3 | [G,E][F,B,E][E,B,E] [E,B,E][F,B,D][G,B,] | [B,E]2 [B,,B,] .[B,,B,]3 | %12
 [E,G,E][E,A,E][E,G,E] [E,G,E][B,,B,][E,B,E] | [F,B,D]2 [G,_DE] .[A,CE]3 | %14
 [G,E][A,CE][B,E] [B,,B,]2 [B,,A,] | [E,G,]6 | [E,E]E,E, z EG, | B,B,,B,, .B,,3 | %18
 B,,B,,B,, z EB,, | E,E,E, .E,3 | E,E,E, z FE, | A,,A,,A,, .A,,3 | E,E,E, z EE, | %23
 B,,B,,B,, .[B,,B,]3 | [E,E]E,E, z EG, | B,B,,B,, .B,,3 | B,,B,,B,, z EB,, | E,E,E, .E,3 | %28
 E,E,E, z FE, | A,,A,,A,, A,,2 A,, | G,A,B, [B,,B,][B,,B,][B,,B,] | [E,G,B,]6 |] %32
V:3
 x6 | x6 | x6 | x6 | x6 | x6 | x6 | x6 | x6 | x6 | x6 | x6 | x6 | x6 | x6 | x6 | z EE EG[B,E] | %17
 z B,B, .B,3 | B,B,B, z G[B,DF] | B,B,B, .B,3 | B,B,B, z A[EGB] | .E3 z3 | .E3 z3 | B,B,B, .[FA]3 | %24
 z EE EG[B,E] | z B,B, .B,3 | B,B,B, z G[B,DF] | B,B,B, .B,3 | B,B,B, z A[EGB] | .E3 z3 | x6 | %31
 x6 |] %32
V:4
 x6 | x6 | x6 | x6 | x6 | x6 | x6 | x6 | x6 | x6 | x6 | x6 | x6 | x6 | x6 | x6 | z3 .E,3 | x6 | %18
 z3 .B,,3 | x6 | z3 .E,3 | x6 | z3 .E,3 | x6 | z3 .E,3 | x6 | z3 .B,,3 | x6 | z3 .E,3 | x6 | x6 | %31
 x6 |] %32
V:5
 x6 | x6 | x6 | x6 | x6 | x6 | x6 | x6 | x6 | x6 | x6 | x6 | x6 | x6 | x6 | x6 | x6 | x6 | %18
 z3 .B,3 | x6 | z3 .B,3 | x6 | x6 | x6 | x6 | x6 | z3 .B,3 | x6 | z3 .B,3 | x6 | x6 | x6 |] %32

